thirdparty/stylelint.svg

<svg viewBox="0 0 125 32" xmlns="http://www.w3.org/2000/svg" fill-rule="evenodd" clip-rule="evenodd" stroke-linejoin="round" stroke-miterlimit="1.414"><g transform="translate(5.5 1.5)" fill="#000e32"><path d="M14.767 27.573c3.11-11.19 3.02-11.24 5.267-19.217l.54.314c.294.17.534.03.534-.31V4.557c.596-2.102 1.064-3.726 1.2-4.215h2.435l4.045 3.772-2.656 2.31 2.01 2.186L14.9 27.573c-.065.107-.155.083-.135 0h.002z"/><path d="M16.214 3.457c.12 0 .217.066.217.15v1.95c0 .08-.09.148-.21.148h-3.27c-.12 0-.22-.067-.22-.15v-1.95c0-.082.1-.148.22-.148h3.27-.007zm4.036-2.16l-3.598 2.09c.042.065.067.14.067.22v1.95c0 .1-.04.19-.11.265l3.63 2.11c.24.145.45.027.45-.26V1.56c0-.288-.21-.406-.45-.262l.011-.001zm-7.813 4.26v-1.95c0-.08.025-.155.066-.22l-3.598-2.09c-.247-.143-.45-.025-.45.262v6.11c0 .29.202.4.45.26l3.635-2.11a.424.424 0 0 1-.104-.27l.001.008z"/><path d="M14.246 27.573h.134c-3.11-11.19-3.02-11.24-5.266-19.217l-.54.314c-.294.17-.535.03-.535-.31V4.557C7.44 2.454 6.97.83 6.83.34H4.4L.36 4.113l2.655 2.31-2.01 2.186 13.24 18.96.001.004z"/><ellipse cx="14.475" cy="8.787" rx=".982" ry=".988"/><ellipse cx="14.475" cy="14.664" rx=".982" ry=".988"/><ellipse cx="14.475" cy="20.541" rx=".982" ry=".988"/><path d="M32.043 21.28c-.684-.24-1.172-.525-1.463-.854-.294-.334-.44-.695-.44-1.09 0-.393.11-.727.33-.988a1.08 1.08 0 0 1 .867-.394c.36 0 .68.107.956.32.276.215.415.515.415.91 0 .394-.24.714-.72.975.397.34 1.002.51 1.817.51 1.764 0 2.645-.5 2.645-1.51 0-.63-.558-1.13-1.675-1.51-.46-.16-.922-.33-1.385-.5-.464-.18-.87-.44-1.214-.78a1.895 1.895 0 0 1-.563-1.26c0-.72.235-1.31.704-1.81.882-.95 2.212-1.41 3.975-1.41.862 0 1.63.16 2.298.49.668.33 1.002.75 1.002 1.28 0 .52-.134.89-.4 1.12-.268.23-.582.34-.936.34-.354 0-.655-.09-.902-.29-.247-.2-.367-.46-.367-.81 0-.35.2-.64.608-.9-.254-.18-.688-.27-1.303-.27-.614 0-1.17.09-1.663.27-.5.18-.75.43-.75.74s.18.57.54.78c.36.21.79.4 1.3.58.51.18 1.02.38 1.53.61.51.23.95.56 1.31.99.36.43.54.96.54 1.59 0 .63-.26 1.19-.77 1.71-.97.97-2.3 1.45-3.98 1.45-.89 0-1.68-.12-2.36-.36l.02.03.034.041zm10.95-9.005c1.077-3.34 2.172-6.14 3.29-8.395l1.94.157c-.114.334-.396 1.142-.845 2.412-.97 2.81-1.597 4.75-1.88 5.82h2.46l-.248 1.03h-2.54c-.954 2.96-1.435 4.77-1.435 5.41 0 .64.067.96.2.96.134 0 .248-.03.355-.08.28-.16.888-.92 1.817-2.29l.64.58c-.694 1.27-1.415 2.21-2.157 2.82-.74.61-1.35.92-1.83.92s-.842-.17-1.09-.5c-.246-.34-.366-.77-.366-1.29 0-1.33.467-3.51 1.396-6.54h-1.644l.254-1.04h1.71l-.025-.02-.002.046zm5.638 3.695l-1.01-.61a9.388 9.388 0 0 1 1.95-2.396c.78-.688 1.48-1.03 2.09-1.03 1 0 1.51.448 1.51 1.35 0 .38-.26 1.29-.77 2.747-.51 1.46-.77 2.38-.77 2.76 0 .39.03.64.08.75.06.12.17.17.35.17.95 0 1.93-.35 2.94-1.07 1.01-.71 1.67-1.5 1.97-2.37l1.1-3.19c.11-.32.3-.58.54-.77.24-.18.47-.28.7-.28.224 0 .404.08.544.22.14.15.214.34.214.58 0 .24-.05.5-.14.76l-1.19 3.47c-.657 2.05-1.67 4.07-3.05 6.05 1.2.13 2.27.34 3.21.65l-.13.87c-1.44-.29-2.71-.46-3.82-.51-1.01 1.31-2.05 2.35-3.11 3.13-1.06.78-1.986 1.17-2.77 1.17-.79 0-1.38-.16-1.77-.48-.4-.32-.59-.75-.59-1.3s.21-1.05.63-1.51c.41-.45.97-.82 1.673-1.1 1.42-.59 3.05-.92 4.89-1 .143-.16.5-.75 1.05-1.76.543-1 .85-1.64.89-1.9-1.85 1.57-3.476 2.35-4.885 2.35-.56 0-.99-.19-1.25-.59-.26-.39-.39-.87-.39-1.45 0-.57.22-1.55.657-2.95.44-1.39.66-2.18.66-2.38 0-.19-.05-.28-.134-.28-.087 0-.19.02-.29.07a.987.987 0 0 0-.304.22l-.276.28s-.175.21-.275.37l-.23.36c-.22.347-.36.576-.42.69l-.04-.05-.034-.041zm4.53 8.097c-.84.052-1.7.205-2.58.455-1.69.48-2.53 1.044-2.53 1.69 0 .388.24.58.72.58s1.27-.347 2.35-1.042c1.08-.695 1.77-1.254 2.05-1.684h.01l-.02.001zM66.23.56h2.536c-.448.773-1.136 2.488-2.064 5.145-.93 2.657-1.777 5.33-2.545 8.02-.77 2.686-1.15 4.33-1.15 4.932 0 .6.074.903.22.903.442 0 1.123-.66 2.052-1.984l.66.628c-.46.795-.96 1.463-1.49 2.004-.94.963-1.7 1.442-2.29 1.442-1.07 0-1.6-.64-1.6-1.924 0-1.91.63-4.918 1.9-9.034C63.74 6.576 65 3.208 66.24.575l-.01-.013V.56zm3.412 17.744c.063 1.2.872 1.8 2.428 1.8.574 0 1.172-.163 1.793-.492.62-.33 1.125-.718 1.512-1.167l.673.438c-.866 1.452-2.25 2.34-4.147 2.663-.41.062-.82.093-1.2.093-1.13 0-2.06-.38-2.82-1.12-.75-.75-1.12-1.66-1.12-2.74 0-1.08.33-2.07.99-2.99.66-.92 1.48-1.63 2.47-2.13.99-.5 1.96-.76 2.92-.76s1.8.22 2.5.65c.71.43 1.07 1.03 1.08 1.77.02.74-.2 1.37-.64 1.92-.44.53-1.01.95-1.7 1.23-1.36.55-2.7.82-4.02.82l-.67-.03-.01.01-.039.035zm-.093-.862c1.15-.04 2.08-.227 2.79-.555.7-.327 1.19-.705 1.47-1.127.27-.423.41-.866.41-1.33 0-.465-.12-.81-.36-1.035-.24-.225-.5-.336-.77-.336-.67 0-1.29.23-1.85.69-.56.46-.99 1.03-1.28 1.69-.3.66-.44 1.33-.44 2h.01l.02.003zM83.64.562h2.536c-.45.77-1.138 2.485-2.066 5.142a144.7 144.7 0 0 0-2.546 8.02c-.768 2.687-1.15 4.332-1.15 4.932 0 .6.072.902.218.902.438 0 1.122-.663 2.05-1.99l.658.627c-.46.794-.955 1.462-1.49 2.005-.942.96-1.703 1.44-2.284 1.44-1.07 0-1.597-.642-1.597-1.927 0-1.91.62-4.922 1.89-9.036S82.39 3.19 83.63.56h.007l.003.002zm3.326 21.078c-.444 0-.792-.136-1.042-.408-.252-.27-.376-.644-.376-1.12 0-.474.123-1.122.367-1.94.245-.82.49-1.564.737-2.233.246-.67.368-1.12.368-1.34 0-.23-.072-.34-.22-.34-.365 0-.954.72-1.768 2.16l-1.05-.61c1.536-2.59 2.945-3.89 4.23-3.89.875 0 1.315.55 1.315 1.66 0 .32-.105.84-.314 1.55l-1.127 3.22c-.116.3-.174.57-.174.82s.095.36.283.36c.354 0 1.008-.66 1.958-1.97l.656.61c-.57 1.04-1.24 1.88-2.02 2.5-.78.63-1.39.94-1.83.94l.007.031zM91.42 7.302c0 .423-.14.807-.423 1.15-.282.347-.66.523-1.142.523-.48 0-.835-.14-1.076-.428-.24-.287-.37-.648-.37-1.09 0-.44.15-.82.45-1.162.29-.34.68-.508 1.15-.508.46 0 .82.154 1.05.448.23.294.35.662.35 1.082l-.01-.014.021-.001zm4.59 9.686c2.18-3.372 4.136-5.058 5.87-5.058.585 0 1.022.178 1.316.533.292.355.438.808.438 1.35 0 .54-.243 1.483-.728 2.82-.487 1.336-.728 2.164-.728 2.486 0 .32.077.48.235.48.208 0 .515-.22.924-.65.407-.44.768-.89 1.082-1.37l.66.63c-.63 1.14-1.31 1.99-2.06 2.58-.75.58-1.35.86-1.82.86s-.82-.16-1.09-.46c-.26-.31-.39-.73-.39-1.26s.21-1.4.63-2.61c.42-1.21.63-2.06.63-2.57 0-.51-.17-.77-.52-.77-.4 0-.86.25-1.41.76-.55.51-1.07 1.13-1.58 1.86-.82 1.17-1.65 2.52-2.49 4.04l-.42.75h-2.2l.48-1.48c.91-2.72 1.36-4.33 1.36-4.83 0-.51-.08-.76-.25-.76-.3 0-.66.36-1.08 1.08-.09.17-.17.3-.23.4-.06.1-.14.22-.21.36-.08.14-.13.23-.15.26l-1.05-.61c.81-1.33 1.56-2.3 2.24-2.94.67-.63 1.37-.94 2.08-.94.32 0 .6.13.83.4.23.27.354.59.354.98s-.037.76-.097 1.13c-.06.37-.12.68-.2.92l-.26.95c-.11.383-.17.602-.18.653l-.03-.03.044.056zm12.023-4.713c1.075-3.34 2.172-6.14 3.287-8.395l1.942.157c-.116.334-.397 1.142-.846 2.412-.97 2.81-1.597 4.75-1.88 5.82h2.46l-.248 1.03h-2.532c-.962 2.96-1.435 4.77-1.435 5.41 0 .64.07.96.2.96.14 0 .25-.03.36-.08.28-.16.89-.92 1.82-2.29l.64.58c-.7 1.27-1.41 2.21-2.16 2.82-.74.61-1.35.92-1.83.92s-.84-.17-1.09-.5c-.24-.34-.36-.77-.36-1.29 0-1.33.47-3.51 1.4-6.54h-1.64l.26-1.04h1.71l-.03-.02-.028.046z"/></g></svg>

<?xml version="1.0" encoding="UTF-8" standalone="no"?>
<!DOCTYPE svg PUBLIC "-//W3C//DTD SVG 1.1//EN" "http://www.w3.org/Graphics/SVG/1.1/DTD/svg11.dtd">
<svg width="100%" height="100%" viewBox="0 0 125 32" version="1.1" xmlns="http://www.w3.org/2000/svg" xmlns:xlink="http://www.w3.org/1999/xlink" xml:space="preserve" xmlns:serif="http://www.serif.com/" style="fill-rule:evenodd;clip-rule:evenodd;stroke-linejoin:round;stroke-miterlimit:1.41421;">
    <g transform="matrix(1,0,0,1,5.5,1.5)">
        <path d="M14.767,27.573C17.877,16.383 17.787,16.333 20.034,8.356L20.574,8.67C20.868,8.84 21.108,8.7 21.108,8.36L21.108,4.557C21.704,2.455 22.172,0.831 22.308,0.342L24.743,0.342L28.788,4.114L26.132,6.424L28.142,8.61L14.9,27.573C14.835,27.68 14.745,27.656 14.765,27.573L14.767,27.573Z" style="fill:rgb(0,14,50);"/>
        <path d="M16.214,3.457C16.334,3.457 16.431,3.523 16.431,3.607L16.431,5.557C16.431,5.637 16.341,5.705 16.221,5.705L12.951,5.705C12.831,5.705 12.731,5.638 12.731,5.555L12.731,3.605C12.731,3.523 12.831,3.457 12.951,3.457L16.221,3.457L16.214,3.457ZM20.25,1.297L16.652,3.387C16.694,3.452 16.719,3.527 16.719,3.607L16.719,5.557C16.719,5.657 16.679,5.747 16.609,5.822L20.239,7.932C20.479,8.077 20.689,7.959 20.689,7.672L20.689,1.56C20.689,1.272 20.479,1.154 20.239,1.298L20.25,1.297ZM12.437,5.557L12.437,3.607C12.437,3.527 12.462,3.452 12.503,3.387L8.905,1.297C8.658,1.154 8.455,1.272 8.455,1.559L8.455,7.669C8.455,7.959 8.657,8.069 8.905,7.929L12.54,5.819C12.475,5.739 12.436,5.649 12.436,5.549L12.437,5.557Z" style="fill:rgb(0,14,50);"/>
        <path d="M14.246,27.573L14.38,27.573C11.27,16.383 11.36,16.333 9.114,8.356L8.574,8.67C8.28,8.84 8.039,8.7 8.039,8.36L8.039,4.557C7.44,2.454 6.97,0.83 6.83,0.34L4.4,0.34L0.36,4.113L3.015,6.423L1.005,8.609L14.245,27.569L14.246,27.573Z" style="fill:rgb(0,14,50);"/>
        <ellipse cx="14.475" cy="8.787" rx="0.982" ry="0.988" style="fill:rgb(0,14,50);"/>
        <ellipse cx="14.475" cy="14.664" rx="0.982" ry="0.988" style="fill:rgb(0,14,50);"/>
        <ellipse cx="14.475" cy="20.541" rx="0.982" ry="0.988" style="fill:rgb(0,14,50);"/>
        <path d="M32.043,21.28C31.359,21.04 30.871,20.755 30.58,20.426C30.286,20.092 30.14,19.731 30.14,19.336C30.14,18.943 30.25,18.609 30.47,18.348C30.688,18.088 30.978,17.954 31.337,17.954C31.697,17.954 32.017,18.061 32.293,18.274C32.569,18.489 32.708,18.789 32.708,19.184C32.708,19.578 32.468,19.898 31.988,20.159C32.385,20.499 32.99,20.669 33.805,20.669C35.569,20.669 36.45,20.169 36.45,19.159C36.45,18.529 35.892,18.029 34.775,17.649C34.315,17.489 33.853,17.319 33.39,17.149C32.926,16.969 32.52,16.709 32.176,16.369C31.832,16.029 31.644,15.599 31.613,15.109C31.613,14.389 31.848,13.799 32.317,13.299C33.199,12.349 34.529,11.889 36.292,11.889C37.154,11.889 37.922,12.049 38.59,12.379C39.258,12.709 39.592,13.129 39.592,13.659C39.592,14.179 39.458,14.549 39.192,14.779C38.924,15.009 38.61,15.119 38.256,15.119C37.902,15.119 37.601,15.029 37.354,14.829C37.107,14.629 36.987,14.369 36.987,14.019C36.987,13.669 37.187,13.379 37.595,13.119C37.341,12.939 36.907,12.849 36.292,12.849C35.678,12.849 35.122,12.939 34.629,13.119C34.129,13.299 33.879,13.549 33.879,13.859C33.879,14.169 34.059,14.429 34.419,14.639C34.779,14.849 35.209,15.039 35.719,15.219C36.229,15.399 36.739,15.599 37.249,15.829C37.759,16.059 38.199,16.389 38.559,16.819C38.919,17.249 39.099,17.779 39.099,18.409C39.099,19.039 38.839,19.599 38.329,20.119C37.359,21.089 36.029,21.569 34.349,21.569C33.459,21.569 32.669,21.449 31.989,21.209L32.009,21.239L32.043,21.28ZM42.993,12.275C44.07,8.935 45.165,6.135 46.283,3.88L48.223,4.037C48.109,4.371 47.827,5.179 47.378,6.449C46.408,9.259 45.781,11.199 45.498,12.269L47.958,12.269L47.71,13.299L45.17,13.299C44.216,16.259 43.735,18.069 43.735,18.709C43.735,19.349 43.802,19.669 43.935,19.669C44.069,19.669 44.183,19.639 44.29,19.589C44.57,19.429 45.178,18.669 46.107,17.299L46.747,17.879C46.053,19.149 45.332,20.089 44.59,20.699C43.85,21.309 43.24,21.619 42.76,21.619C42.28,21.619 41.918,21.449 41.67,21.119C41.424,20.779 41.304,20.349 41.304,19.829C41.304,18.499 41.771,16.319 42.7,13.289L41.056,13.289L41.31,12.249L43.02,12.249L42.995,12.229L42.993,12.275ZM48.631,15.97L47.621,15.36C48.141,14.45 48.791,13.653 49.571,12.964C50.351,12.276 51.051,11.934 51.661,11.934C52.661,11.934 53.171,12.382 53.171,13.284C53.171,13.664 52.911,14.574 52.401,16.031C51.891,17.491 51.631,18.411 51.631,18.791C51.631,19.181 51.661,19.431 51.711,19.541C51.771,19.661 51.881,19.711 52.061,19.711C53.011,19.711 53.991,19.361 55.001,18.641C56.011,17.931 56.671,17.141 56.971,16.271L58.071,13.081C58.181,12.761 58.371,12.501 58.611,12.311C58.851,12.131 59.081,12.031 59.311,12.031C59.535,12.031 59.715,12.111 59.855,12.251C59.995,12.401 60.069,12.591 60.069,12.831C60.069,13.071 60.019,13.331 59.929,13.591L58.739,17.061C58.082,19.111 57.069,21.131 55.689,23.111C56.889,23.241 57.959,23.451 58.899,23.761L58.769,24.631C57.329,24.341 56.059,24.171 54.949,24.121C53.939,25.431 52.899,26.471 51.839,27.251C50.779,28.031 49.853,28.421 49.069,28.421C48.279,28.421 47.689,28.261 47.299,27.941C46.899,27.621 46.709,27.191 46.709,26.641C46.709,26.091 46.919,25.591 47.339,25.131C47.749,24.681 48.309,24.311 49.012,24.031C50.432,23.441 52.062,23.111 53.902,23.031C54.045,22.871 54.402,22.281 54.952,21.271C55.495,20.271 55.802,19.631 55.842,19.371C53.992,20.941 52.366,21.721 50.957,21.721C50.397,21.721 49.967,21.531 49.707,21.131C49.447,20.741 49.317,20.261 49.317,19.681C49.317,19.111 49.537,18.131 49.974,16.731C50.414,15.341 50.634,14.551 50.634,14.351C50.634,14.161 50.584,14.071 50.5,14.071C50.413,14.071 50.31,14.091 50.21,14.141C50.106,14.187 50.003,14.261 49.906,14.361L49.63,14.641C49.63,14.641 49.455,14.851 49.355,15.011L49.125,15.371C48.905,15.718 48.765,15.947 48.705,16.061L48.665,16.011L48.631,15.97ZM53.161,24.067C52.321,24.119 51.461,24.272 50.581,24.522C48.891,25.002 48.051,25.566 48.051,26.212C48.051,26.6 48.291,26.792 48.771,26.792C49.251,26.792 50.041,26.445 51.121,25.75C52.201,25.055 52.891,24.496 53.171,24.066L53.181,24.066L53.161,24.067ZM66.23,0.56L68.766,0.56C68.318,1.333 67.63,3.048 66.702,5.705C65.772,8.362 64.925,11.035 64.157,13.725C63.387,16.411 63.007,18.055 63.007,18.657C63.007,19.257 63.081,19.56 63.227,19.56C63.669,19.56 64.35,18.9 65.279,17.576L65.939,18.204C65.479,18.999 64.979,19.667 64.449,20.208C63.509,21.171 62.749,21.65 62.159,21.65C61.089,21.65 60.559,21.01 60.559,19.726C60.559,17.816 61.189,14.808 62.459,10.692C63.74,6.576 65,3.208 66.24,0.575L66.23,0.562L66.23,0.56ZM69.642,18.304C69.705,19.504 70.514,20.104 72.07,20.104C72.644,20.104 73.242,19.941 73.863,19.612C74.483,19.282 74.988,18.894 75.375,18.445L76.048,18.883C75.182,20.335 73.798,21.223 71.901,21.546C71.491,21.608 71.081,21.639 70.701,21.639C69.571,21.639 68.641,21.259 67.881,20.519C67.131,19.769 66.761,18.859 66.761,17.779C66.761,16.699 67.091,15.709 67.751,14.789C68.411,13.869 69.231,13.159 70.221,12.659C71.211,12.159 72.181,11.899 73.141,11.899C74.101,11.899 74.941,12.119 75.641,12.549C76.351,12.979 76.711,13.579 76.721,14.319C76.741,15.059 76.521,15.689 76.081,16.239C75.641,16.769 75.071,17.189 74.381,17.469C73.021,18.019 71.681,18.289 70.361,18.289L69.691,18.259L69.681,18.269L69.642,18.304ZM69.549,17.442C70.699,17.402 71.629,17.215 72.339,16.887C73.039,16.56 73.529,16.182 73.809,15.76C74.079,15.337 74.219,14.894 74.219,14.43C74.219,13.965 74.099,13.62 73.859,13.395C73.619,13.17 73.359,13.059 73.089,13.059C72.419,13.059 71.799,13.289 71.239,13.749C70.679,14.209 70.249,14.779 69.959,15.439C69.659,16.099 69.519,16.769 69.519,17.439L69.529,17.439L69.549,17.442ZM83.64,0.562L86.176,0.562C85.726,1.332 85.038,3.047 84.11,5.704C83.18,8.362 82.333,11.034 81.564,13.724C80.796,16.411 80.414,18.056 80.414,18.656C80.414,19.256 80.486,19.558 80.632,19.558C81.07,19.558 81.754,18.895 82.682,17.568L83.34,18.195C82.88,18.989 82.385,19.657 81.85,20.2C80.908,21.16 80.147,21.64 79.566,21.64C78.496,21.64 77.969,20.998 77.969,19.713C77.969,17.803 78.589,14.791 79.859,10.677C81.129,6.563 82.39,3.19 83.63,0.56L83.637,0.56L83.64,0.562ZM86.966,21.64C86.522,21.64 86.174,21.504 85.924,21.232C85.672,20.962 85.548,20.588 85.548,20.112C85.548,19.638 85.671,18.99 85.915,18.172C86.16,17.352 86.405,16.608 86.652,15.939C86.898,15.269 87.02,14.819 87.02,14.599C87.02,14.369 86.948,14.259 86.8,14.259C86.435,14.259 85.846,14.979 85.032,16.419L83.982,15.809C85.518,13.219 86.927,11.919 88.212,11.919C89.087,11.919 89.527,12.469 89.527,13.579C89.527,13.899 89.422,14.419 89.213,15.129L88.086,18.349C87.97,18.649 87.912,18.919 87.912,19.169C87.912,19.419 88.007,19.529 88.195,19.529C88.549,19.529 89.203,18.869 90.153,17.559L90.809,18.169C90.239,19.209 89.569,20.049 88.789,20.669C88.009,21.299 87.399,21.609 86.959,21.609L86.966,21.64ZM91.42,7.302C91.42,7.725 91.28,8.109 90.997,8.452C90.715,8.799 90.337,8.975 89.855,8.975C89.375,8.975 89.02,8.835 88.779,8.547C88.539,8.26 88.409,7.899 88.409,7.457C88.409,7.017 88.559,6.637 88.859,6.295C89.149,5.955 89.539,5.787 90.009,5.787C90.469,5.787 90.829,5.941 91.059,6.235C91.289,6.529 91.409,6.897 91.409,7.317L91.399,7.303L91.42,7.302ZM96.01,16.988C98.19,13.616 100.146,11.93 101.88,11.93C102.465,11.93 102.902,12.108 103.196,12.463C103.488,12.818 103.634,13.271 103.634,13.813C103.634,14.353 103.391,15.296 102.906,16.633C102.419,17.969 102.178,18.797 102.178,19.119C102.178,19.439 102.255,19.599 102.413,19.599C102.621,19.599 102.928,19.379 103.337,18.949C103.744,18.509 104.105,18.059 104.419,17.579L105.079,18.209C104.449,19.349 103.769,20.199 103.019,20.789C102.269,21.369 101.669,21.649 101.199,21.649C100.729,21.649 100.379,21.489 100.109,21.189C99.849,20.879 99.719,20.459 99.719,19.929C99.719,19.399 99.929,18.529 100.349,17.319C100.769,16.109 100.979,15.259 100.979,14.749C100.979,14.239 100.809,13.979 100.459,13.979C100.059,13.979 99.599,14.229 99.049,14.739C98.499,15.249 97.979,15.869 97.469,16.599C96.649,17.769 95.819,19.119 94.979,20.639L94.559,21.389L92.359,21.389L92.839,19.909C93.749,17.189 94.199,15.579 94.199,15.079C94.199,14.569 94.119,14.319 93.949,14.319C93.649,14.319 93.289,14.679 92.869,15.399C92.779,15.569 92.699,15.699 92.639,15.799C92.579,15.899 92.499,16.019 92.429,16.159C92.349,16.299 92.299,16.389 92.279,16.419L91.229,15.809C92.039,14.479 92.789,13.509 93.469,12.869C94.139,12.239 94.839,11.929 95.549,11.929C95.869,11.929 96.149,12.059 96.379,12.329C96.609,12.599 96.733,12.919 96.733,13.309C96.733,13.699 96.696,14.069 96.636,14.439C96.576,14.809 96.516,15.119 96.436,15.359L96.176,16.309C96.066,16.692 96.006,16.911 95.996,16.962L95.966,16.932L96.01,16.988ZM108.033,12.275C109.108,8.935 110.205,6.135 111.32,3.88L113.262,4.037C113.146,4.371 112.865,5.179 112.416,6.449C111.446,9.259 110.819,11.199 110.536,12.269L112.996,12.269L112.748,13.299L110.216,13.299C109.254,16.259 108.781,18.069 108.781,18.709C108.781,19.349 108.851,19.669 108.981,19.669C109.121,19.669 109.231,19.639 109.341,19.589C109.621,19.429 110.231,18.669 111.161,17.299L111.801,17.879C111.101,19.149 110.391,20.089 109.641,20.699C108.901,21.309 108.291,21.619 107.811,21.619C107.331,21.619 106.971,21.449 106.721,21.119C106.481,20.779 106.361,20.349 106.361,19.829C106.361,18.499 106.831,16.319 107.761,13.289L106.121,13.289L106.381,12.249L108.091,12.249L108.061,12.229L108.033,12.275Z" style="fill:rgb(0,14,50);"/>
    </g>
</svg>
